!!!!SEGMENT: pl-kk--i-540--001-009_rychling-wincenty-waclaw--kompleta-do-pana-jezusa-o-christe-panie.krn
!!!cenid: 18xx:4469
!!!COM: Rychling, Wincenty Wacław
!!!COM-rismID: pe50046026
!!!CDT: 1841/01/09-1896/01/11
!!!CNT: Polish
!!!GTL: Kompleta
!!!OTL: Do Pana Jezusa/O Christe Panie
!!!OMV: 009
!!!PDT:
!!!AGN: Sacred
!!!YEC: Copyright 2022 Narodowy Instytut Fryderyka Chopina (https://polishscores.org)
!!!YEM: License CC-BY-4.0 (https://creativecommons.org/licenses/by/4.0)
!!!SMS-siglum: PL-Kk
!!!SMS-shelfmark: I.540
!!!SMS-variant:
!!!SMS-altvar:
!!!SMS-shelfwork: 001-009 G
!!!NIFC-rismSourceID: 1001210701
!!!NIFC-rismChildID: 1001210723
!!!NIFC-islandoraID: pl-kk:16958
!!!URL-pdf-islandora: https://repozytorium.nifc.pl/islandora/object/pl-kk%3A16958/datastream/PDF/view
!!!URL-scan: https://polish.musicsources.pl/pl/lokalizacje/galeria/rekopisy/7167/5 @EN{Scan on Polish Music Sources Website} @PL{Skany w portalu Dziedzictwo Muzyki Polskiej w otwartym dostępie}
!!!IIIF:
!!!ONB-nifc: UWAGA: źródło tylko w wersji partyturowej, skan 5-6.
!!!OMD:
!!!AIN: 2 male
!!!key: e
**kern	**text	**text	**text	**kern	**text	**text	**text
*part2	*part2	*part2	*part2	*part1	*part1	*part1	*part1
*staff2	*staff2	*staff2	*staff2	*staff1	*staff1	*staff1	*staff1
*I"[Voice]	*	*	*	*I"[Voice]	*	*	*
*Imale	*	*	*	*Imale	*	*	*
*ICvox	*	*	*	*ICvox	*	*	*
*clefF4	*	*	*	*clefG2	*	*	*
*	*	*	*	*ITrd8c12	*	*	*
*k[f#]	*	*	*	*k[f#]	*	*	*
*e:	*	*	*	*e:	*	*	*
*M4/4	*	*	*	*M4/4	*	*	*
*met(c)	*	*	*	*met(c)	*	*	*
=1	=1	=1	=1	=1	=1	=1	=1
*^	*	*	*	*^	*	*	*
*	*	*	*v:2	*v:3	*	*	*v:1	*	*
*	*2\right	*	*	*	*	*2\right	*	*	*
!!LO:TX:t=P:problem=all/left
!!LO:TX:t=P:problem=all\right
2E/	2E\	.	Ty	Wiel-	2B/	2G\	O	.	.
4E/	4E\	.	cos	-ka	4c/	4G\	Chri-	.	.
4E/	4E\	.	prze-	u-	4B/	4G\	-ste	.	.
=2	=2	=2	=2	=2	=2	=2	=2	=2	=2
2F#X/	2D\	.	-mó-	-ciecz-	2d/	2A\	Pa-	.	.
2D/	2D\	.	-wił	-ko	2A/	2F#X\	-nie	.	.
=3	=3	=3	=3	=3	=3	=3	=3	=3	=3
4E/	4AA\	.	nie-	śród	4c/	4A\	za	.	.
4E/	4AA\	.	-gdys	u-	4c/	4G\	za-	.	.
4.D#X/	4.BB\	.	do	-tra-	4.B/	4.F#X\	-sło-	.	.
8D#/	8BB\	.	nie-	-pień	8A/	8F#\	-ną	.	.
=4	=4	=4	=4	=4	=4	=4	=4	=4	=4
2D#X/	2C\	.	-wia-	wie-	2A/	2F#X\	czar-	.	.
4E/	4C\	.	-sty	-lu	4G/	4E\	-ną	.	.
4r	4ryy	.	.	.	4r	4ryy	.	.	.
!!LO:LB:g=original
=5	=5	=5	=5	=5	=5	=5	=5	=5	=5
2E/	2C\	.	Kie-	O	2c/	2G\	To-	.	.
4E/	4C\	.	-dy	Chry-	4G/	4G\	-bie	.	.
4E-X/	4C\	.	koń-	-ste	4A/	4F#X\	się	.	.
=6	=6	=6	=6	=6	=6	=6	=6	=6	=6
2D/	2GG\	.	-czy-	pa-	2B/	2G\	Ko-	.	.
2G/	2G\	.	-li	-nie	2d/	2B\	-rzem	.	.
=7	=7	=7	=7	=7	=7	=7	=7	=7	=7
4G/	4E\	.	Kró-	swia-	4d/	4G\	z ża-	.	.
4G/	4E\	.	-lo-	-ta	4c/	4G\	-łoś-	.	.
4G/	4E\	.	-wa-	zba-	4B/	4G\	-cią	.	.
4E/	4C\	.	-nie	-wi-	4A/	4A\	nie	.	.
=8	=8	=8	=8	=8	=8	=8	=8	=8	=8
4E/	2BB\	.	Pia-	-cie-	2B/	2F#X\	mar-	.	.
8D#X/L	.	.	.	.	.	.	.	.	.
8C#X/J	.	.	.	.	.	.	.	.	.
2D#/	2BB\	.	-sty	-lu	2B/	2F#\	-ną	.	.
=9||	=9||	=9||	=9||	=9||	=9||	=9||	=9||	=9||	=9||
2E/	2E\	.	Przed	Niech	2B/	2G#X\	Do	.	.
4E/	4AA\	.	To-	nie	4c/	4A\	Krzy-	.	.
4D/	4BB\	.	-bą	za-	4B/	4G#\	-ża	.	.
!!LO:LB:g=original
=10	=10	=10	=10	=10	=10	=10	=10	=10	=10
2E/	2C\	.	Krzy-	-tra-	2A/	2A\	Twe-	.	.
2D#X/	2BB\	.	-żem	-ca	2B/	2F#X\	-go	.	.
=11	=11	=11	=11	=11	=11	=11	=11	=11	=11
2E/	2C\	.	pa-	w nas	2G/	2E\	wier-	.	.
2C/	2AA\	.	-da	się	2A/	2F#X\	-ny	.	.
=12	=12	=12	=12	=12	=12	=12	=12	=12	=12
4.D/	4.GG\	.	wszy-	swo-	4.B/	4.G\	na-	.	.
8D/	8GG\	.	-stek	-ja	8B/	8G\	-rod	.	.
2D/	2GG\	.	lud	Krew	2B/	2G\	zbliż	.	.
=13	=13	=13	=13	=13	=13	=13	=13	=13	=13
2G/	2G\	.	Daj	Gło-	2d/	2B\	Daj	.	.
4F#X/	4D\	.	znak	-wa	4d/	4A\	łas-	.	.
4F#/	4D\	.	Twej	Two-	4c/	4A\	-kę	.	.
=14	=14	=14	=14	=14	=14	=14	=14	=14	=14
2G/	2E\	.	ła-	-je-	2B/	2G\	Pa-	.	.
2G/	2GG\	.	-ski	-go	2e/	2B\	-nie	.	.
=15	=15	=15	=15	=15	=15	=15	=15	=15	=15
2Fn/	2GG#X\	.	niech	niech	2d/	2B\	w Krzy-	.	.
2E/	2AA\	.	się	nie	2c#X/	2A\	-że	.	.
!!LO:PB:g=original
=16	=16	=16	=16	=16	=16	=16	=16	=16	=16
4F#X/	4D\	.	sta-	gi-	4d/	4A\	i	.	.
4G/	4D\	.	-nie	-nie	4B/	4G\	przez	.	.
2D/	2D\	.	lud	siew	2A/	2F#\	Krzyż	.	.
=17	=17	=17	=17	=17	=17	=17	=17	=17	=17
2D/	2D\	.	Bo-	A-	2A/	2F\	Przy-	.	.
4D/	4D\	.	-ży	-le	4A/	4F\	-im	.	.
4D/	4D\	.	nie	niech	4B/	4F\	.	.	.
=18	=18	=18	=18	=18	=18	=18	=18	=18	=18
2A/	2AA\	.	lu-	sto-	2c/	4F#\	Płu-	.	.
.	.	.	.	.	.	8E\L	.	.	.
.	.	.	.	.	.	8D#X\J	.	.	.
2AA/	2AA\	.	-dem	-i	2c/	2E\	-cze	.	.
=19	=19	=19	=19	=19	=19	=19	=19	=19	=19
2C/	2C\	.	Tyl-	Pan	2G/	2E-X\	czy-	.	.
4C/	4C\	.	-ko	w chwa-	4G/	4E-\	-ste	.	.
4C/	4C\	.	Twym	-le	4A/	4E-\	i	.	.
=20	=20	=20	=20	=20	=20	=20	=20	=20	=20
2G/	2GG\	.	cu-	swo-	2B/	4.D\	Pa-	.	.
.	.	.	.	.	.	8C#X\	nie	.	.
2G/	2GG\	.	-dem	-jej	2B/	2D\	-Chry-	.	.
!!LO:LB:g=original
=21	=21	=21	=21	=21	=21	=21	=21	=21	=21
2E/	2GG#X\	.	Bo-	I	2e/	2B\	-ste	.	.
2E/	2AA\	.	-żym	z pod	2c/	2A\	W Krzy-	.	.
=22	=22	=22	=22	=22	=22	=22	=22	=22	=22
4E/	4E\	.	cięż-	Krzy-	4B/	4G#X\	-żu	.	.
4E/	4AA\	.	-ki	-ża	4c/	4A\	i przez	.	.
2E/	2E\	.	trud	Krzew.	2B/	2G#\	Krzyż	.	.
*v	*v	*	*	*	*	*	*	*	*
*	*	*	*	*v	*v	*	*	*
==	==	==	==	==	==	==	==
*-	*-	*-	*-	*-	*-	*-	*-
!!!system-decoration: {(s1,s2)}
!!!ENC: Andrzej Gręziak
!!!END: 2023-10-27
!!!EED: Marta Chmielewska
!!!EEV: 2024-04-18
